assets/images/Social/Icons/vk.svg

<svg width="100" height="100" viewBox="0 0 100 100" fill="none" xmlns="http://www.w3.org/2000/svg">
<circle cx="50" cy="50" r="50" fill="#F7C24D"/>
<path fill-rule="evenodd" clip-rule="evenodd" d="M64.824 54.2285C64.824 54.2285 67.8963 57.2628 68.6563 58.6669C68.6711 58.6872 68.6826 58.7096 68.6905 58.7334C69.0002 59.2521 69.0762 59.6587 68.9242 59.9589C68.6677 60.4548 67.7994 60.7037 67.5049 60.7246H62.0747C61.6966 60.7246 60.91 60.6258 59.9524 59.9646C59.2209 59.4535 58.4932 58.6118 57.7883 57.7891C56.7357 56.5674 55.8256 55.5072 54.9041 55.5072C54.7877 55.507 54.6721 55.5262 54.5621 55.5642C53.8648 55.7846 52.9794 56.7783 52.9794 59.425C52.9794 60.2534 52.3258 60.7246 51.8679 60.7246H49.3808C48.5334 60.7246 44.1216 60.4282 40.2095 56.3033C35.4158 51.2531 31.1104 41.1223 31.0686 41.033C30.8007 40.3775 31.3631 40.0203 31.9711 40.0203H37.4545C38.1898 40.0203 38.4292 40.4649 38.5964 40.8639C38.7902 41.3218 39.5084 43.1534 40.6864 45.2111C42.594 48.5589 43.7663 49.9212 44.703 49.9212C44.879 49.9217 45.052 49.8759 45.2046 49.7882C46.4282 49.1156 46.2002 44.7456 46.1432 43.845C46.1432 43.6702 46.1413 41.8937 45.5143 41.0349C45.0659 40.4193 44.3021 40.1799 43.8404 40.0925C43.9639 39.9139 44.2261 39.6403 44.5624 39.4788C45.4003 39.0608 46.9146 39 48.4175 39H49.2516C50.8818 39.0228 51.3036 39.1273 51.8964 39.2774C53.0896 39.5624 53.1124 40.3357 53.0079 42.9691C52.9775 43.7215 52.9452 44.5689 52.9452 45.5664C52.9452 45.7792 52.9357 46.0167 52.9357 46.258C52.8996 47.6089 52.8521 49.1308 53.8059 49.7559C53.9296 49.833 54.0724 49.8738 54.2182 49.8737C54.5488 49.8737 55.5387 49.8737 58.2234 45.2662C59.4014 43.2313 60.3134 40.8316 60.3761 40.6511C60.4293 40.5504 60.5889 40.2673 60.7827 40.1533C60.9206 40.08 61.075 40.0433 61.2311 40.0469H67.6816C68.3846 40.0469 68.8615 40.1533 68.9546 40.4193C69.1104 40.8506 68.9242 42.1673 65.9792 46.1497C65.4833 46.8128 65.0482 47.3866 64.6663 47.8882C61.9968 51.3918 61.9968 51.5685 64.824 54.2285Z" fill="#010107"/>
</svg>

<svg xmlns="http://www.w3.org/2000/svg" width="100" height="100" fill="none" viewBox="0 0 100 100"><circle cx="50" cy="50" r="50" fill="#F7C24D"/><path fill="#010107" fill-rule="evenodd" d="M64.824 54.228s3.072 3.035 3.832 4.439c.015.02.027.043.034.066.31.52.386.926.234 1.226-.256.496-1.125.745-1.42.766h-5.43c-.377 0-1.164-.1-2.122-.76-.731-.512-1.459-1.353-2.164-2.176-1.052-1.222-1.962-2.282-2.884-2.282-.116 0-.232.02-.342.057-.697.22-1.583 1.214-1.583 3.861 0 .828-.653 1.3-1.111 1.3H49.38c-.848 0-5.26-.297-9.172-4.422-4.793-5.05-9.099-15.18-9.14-15.27-.268-.656.294-1.013.902-1.013h5.484c.735 0 .974.445 1.141.844.194.458.912 2.29 2.09 4.347 1.908 3.348 3.08 4.71 4.017 4.71a1 1 0 0 0 .502-.133c1.223-.672.995-5.042.938-5.943 0-.175-.002-1.951-.629-2.81-.448-.616-1.212-.855-1.674-.942.124-.18.386-.453.722-.614.838-.418 2.353-.479 3.855-.479h.835c1.63.023 2.052.127 2.644.277 1.194.285 1.216 1.059 1.112 3.692-.03.752-.063 1.6-.063 2.597 0 .213-.01.45-.01.692-.035 1.35-.083 2.873.87 3.498a.778.778 0 0 0 .413.118c.33 0 1.32 0 4.005-4.608 1.178-2.035 2.09-4.434 2.153-4.615.053-.1.213-.384.407-.498a.91.91 0 0 1 .448-.106h6.45c.704 0 1.18.106 1.274.372.155.432-.03 1.748-2.976 5.73-.496.664-.93 1.238-1.313 1.74-2.67 3.503-2.67 3.68.158 6.34z" clip-rule="evenodd"/></svg>
